img/meditations/yoga.svg

<svg width="100" height="100" viewBox="0 0 100 100" fill="none" xmlns="http://www.w3.org/2000/svg">
<path d="M54.4046 13.2519C54.4046 16.8771 53.2234 19.1379 52.1897 21.4863C50.4474 25.4435 44.2697 25.4434 42.5277 21.4863L41.6214 19.4277C40.6817 17.2892 39.9506 13.9666 40.4886 11.8242C41.194 9.00193 43.9746 6.8457 47.3577 6.8457C51.1894 6.8457 54.4046 9.66542 54.4046 13.2519Z" fill="#F9CFAC"/>
<path d="M54.2286 11.8186C53.8769 14.1694 53.1272 15.6364 52.1897 17.7639C50.45 21.7198 44.2689 21.7235 42.5274 17.7639C41.5666 15.583 40.8503 14.1891 40.4886 11.8244C41.6997 6.97876 48.3966 5.13033 52.34 8.7229C53.26 9.55885 53.928 10.6252 54.2286 11.8186Z" fill="#FFE4CC"/>
<path d="M54.4046 13.2523C54.4046 14.1 54.3323 14.9437 54.1897 15.7796C53.8751 14.6429 53.2248 13.6273 52.34 12.8246C48.4494 9.28004 41.8434 11.0242 40.5274 15.7816C40.0291 12.8666 40.2966 10.3353 42.6897 8.45544C47.1866 4.8279 54.4046 7.69918 54.4046 13.2523Z" fill="#6D6D6D"/>
<path d="M43.8354 7.78925V5.08553C43.8354 3.13925 45.4117 1.56287 47.358 1.56287C49.3072 1.56287 50.8806 3.13925 50.8806 5.08553V7.78925" fill="#6D6D6D"/>
<path d="M59.2209 26.953L57.9571 25.371C57.3497 24.7636 56.5529 24.4608 55.756 24.4608H38.9611C38.1643 24.4608 37.3674 24.7636 36.76 25.371C36.7017 25.4438 35.5249 26.9171 35.4494 27.0116C37.2797 36.8894 38.5509 33.406 38.5509 49.1189H56.1643C56.1643 40.9586 56.3717 38.2083 57.3674 34.6326C57.5674 33.9043 59.4412 27.2194 59.2209 26.953Z" fill="#B3CEC9"/>
<path d="M56.9934 26.485L55.9669 25.2001C55.4737 24.7067 54.8263 24.4608 54.1791 24.4608H40.538C39.8906 24.4608 39.2434 24.7067 38.75 25.2001C38.7029 25.2592 37.7469 26.4559 37.6854 26.5327C38.8951 33.0606 39.9783 32.6374 40.1611 40.234C40.252 44.0109 43.3374 47.0277 47.1154 47.0277C51.8709 47.0277 54.4626 43.702 54.5566 40.1974C54.634 37.2192 54.7609 35.3323 55.4877 32.7226C55.6549 32.1152 57.172 26.701 56.9934 26.485Z" fill="#CAE0DD"/>
<path d="M71.3088 59.7184L56.1643 49.119H38.5511C36.4614 62.0387 38.3023 70.493 40.176 84.3727L47.3577 84.3453V59.6873L59.6877 63.2107V70.2556H67.9865C73.6708 70.2556 75.8874 62.933 71.3088 59.7184Z" fill="#5FC68F"/>
<path d="M71.3088 59.7184L56.1643 49.119H38.5511C36.7931 59.987 37.9023 64.4236 39.7268 77.9313C40.148 81.0699 44.0048 82.3644 46.2405 80.1227C46.93 79.4293 47.3577 78.4724 47.3577 77.4176V58.8182C47.3577 57.695 48.432 56.8844 49.512 57.193L59.6877 60.1013C59.6877 60.1347 59.35 59.9584 64.0628 62.2499H59.6877C59.6877 64.9542 61.8771 67.1462 64.5843 67.1462H67.9865C70.6465 67.1462 72.8868 65.3553 73.5665 62.9119C73.2028 61.5887 72.3797 60.4704 71.3088 59.7184Z" fill="#7ADBAE"/>
<path d="M47.3577 84.3461V96.8755C47.3577 97.7387 46.6585 98.4378 45.7951 98.4378H35.2777C34.0765 98.4378 33.3048 97.1275 33.9223 96.1001C34.3057 95.3329 35.3851 94.3855 36.6857 94.0609L41.3265 92.9009C41.0474 90.8238 41.2774 92.5298 40.176 84.3735C40.5037 84.3732 39.5485 84.3766 47.3577 84.3461Z" fill="#F9CFAC"/>
<path d="M47.3577 84.3461V95.3129C47.3577 96.1761 46.6586 96.8755 45.7952 96.8755H35.2777C34.68 96.8755 34.1897 96.5512 33.9223 96.1001C34.3057 95.3329 35.3854 94.3855 36.686 94.0609L41.3266 92.9009L41.1234 91.3892L41.3266 91.3384L40.3872 84.3735L47.3577 84.3461Z" fill="#FFE4CC"/>
<path d="M59.6877 63.2112V70.256H52.6428C51.7374 73.8717 51.6734 75.1426 50.1351 76.346C49.3617 76.9494 48.3928 77.3009 47.3577 77.3009V66.3363C47.3577 64.6103 48.7568 63.2112 50.4826 63.2112H59.6877Z" fill="#F9CFAC"/>
<path d="M59.6877 63.2112V68.172H52.6428C51.7374 71.7877 51.6731 73.0586 50.1348 74.262C49.3614 74.8655 48.3928 75.2172 47.3577 75.2172V66.3363C47.3577 64.6103 48.7566 63.2112 50.4826 63.2112H59.6877Z" fill="#FFE4CC"/>
<path d="M47.3577 32.2443V42.0743C47.3577 43.0498 46.566 43.8361 45.596 43.8361H30.1351C27.7056 43.8361 25.8786 41.6369 26.2737 39.2872C26.503 37.8826 26.1616 38.6401 36.76 25.3712C38.1354 23.996 40.3426 24.2991 41.2911 25.5118C42.3751 26.7365 42.3323 28.6055 41.1623 29.7755C36.7734 35.3672 36.2494 36.0358 34.2717 38.5509H42.0746L42.7209 34.8478C43.7006 31.8975 46.5643 31.5861 46.5843 31.5666C46.9926 31.5021 47.3577 31.8301 47.3577 32.2443Z" fill="#F9CFAC"/>
<path d="M64.5823 43.8357H49.1194C48.1471 43.8357 47.3577 43.0449 47.3577 42.074V32.244C47.3577 31.83 47.7228 31.5017 48.1311 31.5663C48.1508 31.5857 51.0157 31.8997 51.9943 34.8474L52.6428 38.5506H60.4454C58.8077 36.4677 59.69 37.5906 53.5528 29.7752C51.6011 27.8235 52.986 24.4608 55.756 24.4608C56.5528 24.4608 57.3497 24.7636 57.9571 25.371C59.0723 26.7669 67.5803 37.4049 67.6388 37.4783C69.6691 40.0163 67.8677 43.8357 64.5823 43.8357Z" fill="#F9CFAC"/>
<path d="M46.5763 39.0333C46.5763 40.0088 45.7848 40.7951 44.8146 40.7951H29.3537C28.0785 40.7951 26.9383 40.1691 26.2736 39.2873C26.5029 37.8825 26.1615 38.6399 36.76 25.3712C37.9726 24.1589 39.9474 24.1564 41.1623 25.3712C41.2023 25.4113 40.9517 26.164 40.3811 26.7345C35.84 32.5202 37.0137 31.0256 34.8263 33.8088C33.9983 34.8633 33.7874 36.2776 34.2717 37.5276H35.0763L34.2717 38.5511H42.0746L42.7208 34.8479C43.2686 33.1985 44.638 32.0005 46.2677 31.6291C46.684 32.1225 46.5763 31.7973 46.5763 39.0333Z" fill="#FFE4CC"/>
<path d="M68.4769 39.5488C67.9309 40.2113 66.8109 40.7951 65.6194 40.7951H50.1563C49.1846 40.7951 48.3946 40.0039 48.3946 39.0333C48.3946 31.8673 48.2997 32.1582 48.6603 31.6816C50.1917 32.1056 51.468 33.2631 51.9943 34.8476L52.6429 38.5508H60.4454L59.6409 37.5273H60.7014C60.8731 37.0839 60.9571 36.6173 60.9571 36.1562C60.9571 34.5008 60.1083 33.7599 58.4046 31.5919C53.8094 25.7405 53.9274 26.0206 53.7503 25.1915C54.9631 24.1671 56.8003 24.2141 57.9571 25.3711C65.3731 34.6553 58.9174 26.5739 67.6389 37.4785C68.1154 38.0742 68.4046 38.7951 68.4769 39.5488Z" fill="#FFE4CC"/>
<path d="M52.2329 8.62898C49.5837 9.69326 45.0406 9.60438 42.6897 8.45515C45.4486 6.22978 49.6106 6.33503 52.2329 8.62898Z" fill="#797A7A"/>
<path d="M1.56579 99.999H98.4407C99.3036 99.999 100.003 99.2992 100.003 98.4364C100.003 97.5735 99.3036 96.8738 98.4407 96.8738H48.9241V78.6595C51.0224 78.1032 52.7076 76.4487 53.2544 74.2613L53.8656 71.817H67.9904C75.1716 71.817 78.0641 62.5378 72.2076 58.4384L57.731 48.3047C57.7336 47.2278 57.7416 46.2653 57.755 45.3973H64.5853C69.159 45.3973 71.7193 40.0724 68.8624 36.5015C58.4164 23.4404 59.1553 24.3551 59.065 24.265C57.417 22.6168 55.7087 22.8974 53.2056 22.8974C53.5156 22.4004 53.5396 22.3013 54.5296 20.0556C55.467 17.9219 55.9693 15.6097 55.9693 13.2506C55.9693 10.5973 54.5901 8.2748 52.4467 6.81854C52.4467 4.76991 52.6218 3.15645 50.957 1.48536C47.7559 -1.70506 42.2761 0.584386 42.2761 5.08417V6.81854C40.1336 8.2744 38.7536 10.5965 38.7536 13.2506C38.7536 15.5904 39.2378 17.8801 40.1941 20.0576C41.1593 22.2469 41.1953 22.3812 41.5176 22.8974C39.1196 22.8974 37.3164 22.607 35.6584 24.2652C35.5467 24.3765 34.7821 25.3521 34.1556 26.1299C32.8653 27.7259 35.2507 29.7778 36.6733 27.9865C37.9058 26.4435 37.9896 26.1759 38.6767 26.0488C38.8964 26.008 37.8218 26.0224 55.7596 26.0224C56.7447 26.0224 56.9404 26.6404 58.0293 27.9591C58.2576 28.2552 57.0947 26.7912 66.4221 38.4535C67.647 39.9844 66.5458 42.2721 64.5856 42.2721H49.1227C48.8353 42.2721 48.9236 42.6407 48.9236 33.4558C49.623 33.8295 50.1884 34.443 50.4804 35.2401L51.107 38.819C51.2379 39.5664 51.8873 40.1118 52.6461 40.1118H60.449C61.7476 40.1118 62.4836 38.6101 61.6776 37.5841L57.1698 31.8461C56.6367 31.1673 55.6547 31.0493 54.9761 31.5824C54.2973 32.1153 54.1793 33.0975 54.7124 33.7764L55.659 34.9813C55.4878 35.6398 55.3416 36.2838 55.2164 36.987H53.9587L53.5367 34.577C53.3841 33.7013 52.5121 32.1493 51.1336 31.1601C48.9081 29.5513 45.8633 29.5195 43.591 31.1578C42.265 32.1118 41.3473 33.6493 41.185 34.5775L40.7644 36.987H39.5058C39.3807 36.2855 39.2344 35.6413 39.0639 34.9815L40.0107 33.7758C40.5436 33.0967 40.4253 32.1147 39.7464 31.5821C39.0676 31.0493 38.0856 31.1678 37.5527 31.8464L33.0461 37.5841C32.2438 38.6055 32.9701 40.1118 34.275 40.1118H42.0776C42.837 40.1118 43.4861 39.5661 43.617 38.8181L44.2416 35.2395C44.529 34.4561 45.0901 33.8338 45.7984 33.4558V42.0727C45.7984 42.3795 46.6258 42.2721 30.1381 42.2721C28.1898 42.2721 27.0665 39.9973 28.3028 38.4515L28.6036 38.0747C29.1418 37.3998 29.0313 36.417 28.3568 35.8787C27.6822 35.3407 26.6989 35.451 26.1608 36.1255L25.8612 36.501C22.9712 40.1138 25.6032 45.3967 30.1381 45.3967H36.967C36.983 46.4567 36.991 47.649 36.9913 49.003C34.8527 62.3855 36.7073 70.3427 39.5938 91.7215L36.309 92.5427C34.1218 93.0895 32.4687 94.7747 31.9121 96.8733H1.56579C0.702904 96.8733 0.0032959 97.573 0.0032959 98.4358C0.0032959 99.2987 0.70271 99.999 1.56579 99.999ZM45.4013 5.08437C45.4013 3.33614 47.5233 2.4754 48.747 3.69494C49.3541 4.30431 49.3218 4.93085 49.3218 5.4916C48.071 5.22325 46.7396 5.20448 45.4013 5.4916V5.08437ZM43.4301 9.87734C44.3701 9.02285 44.399 9.4166 44.9218 8.91268C46.4496 8.23983 48.2727 8.23965 49.801 8.91268C50.2973 9.391 50.3807 9.04805 51.2927 9.87734C53.1113 11.5303 53.0681 13.6301 52.5484 16.0701C52.1838 17.7847 51.7096 18.7066 50.7618 20.8562C49.5693 23.5677 45.1538 23.5679 43.9607 20.8549C42.841 18.3152 41.8787 16.4478 41.8787 13.2508C41.8787 11.9849 42.4296 10.7869 43.4301 9.87734ZM52.6456 68.6921C51.9287 68.6921 51.3036 69.1801 51.1298 69.8755L50.2227 73.5035C50.0318 74.267 49.5553 74.8967 48.9238 75.291V64.7715H58.1284V68.6921H52.6456ZM47.3607 44.8887C48.4416 45.5667 48.8124 45.3975 54.6298 45.3975C54.6133 46.4838 54.6053 47.7127 54.6053 49.1184C54.6053 49.5178 54.7638 49.9147 55.047 50.2058C55.2058 50.3693 54.215 49.6584 70.4156 60.9987C73.7907 63.3613 72.1133 68.6924 67.9907 68.6924H61.2538V64.7718H63.2139C64.0767 64.7718 64.7764 64.0721 64.7764 63.2093C64.7764 62.3464 64.0767 61.6467 63.2139 61.6467H59.9101L47.791 58.1841C46.7947 57.8995 45.799 58.6475 45.799 59.6864V82.783H41.541C39.7293 69.3635 38.2504 62.2381 39.8978 50.6807H47.3618C48.2247 50.6807 48.9244 49.981 48.9244 49.1181C48.9244 48.255 48.2247 47.5555 47.3613 47.5555H40.1136C40.1098 46.7804 40.103 46.0644 40.0933 45.3973C45.9701 45.3973 46.2973 45.5567 47.3607 44.8887ZM37.067 95.5752L41.709 94.415C42.4813 94.2218 42.985 93.479 42.8784 92.6898L41.9627 85.9081H45.799V96.8741H35.2799C35.6738 96.2427 36.3036 95.7661 37.067 95.5752Z" fill="black"/>
<path d="M30.256 31.0048L30.014 31.3057C29.4726 31.978 29.5791 32.9614 30.2511 33.5026C30.9277 34.0471 31.9106 33.9331 32.4483 33.2654L32.6906 32.9646C33.2317 32.2923 33.1251 31.3088 32.4531 30.7674C31.7808 30.2263 30.7971 30.3326 30.256 31.0048Z" fill="black"/>
</svg>

<svg width="100" height="100" fill="none" xmlns="http://www.w3.org/2000/svg"><path d="M54.405 13.252c0 3.625-1.182 5.886-2.215 8.234-1.743 3.957-7.92 3.957-9.662 0l-.907-2.058c-.94-2.139-1.67-5.461-1.132-7.604.705-2.822 3.486-4.978 6.869-4.978 3.831 0 7.047 2.82 7.047 6.406z" fill="#F9CFAC"/><path d="M54.229 11.819c-.352 2.35-1.102 3.817-2.04 5.945-1.739 3.956-7.92 3.96-9.662 0-.96-2.181-1.677-3.575-2.038-5.94 1.21-4.845 7.908-6.694 11.851-3.101.92.836 1.588 1.902 1.889 3.096z" fill="#FFE4CC"/><path d="M54.405 13.252c0 .848-.073 1.692-.215 2.528a6.254 6.254 0 00-1.85-2.955c-3.89-3.545-10.497-1.8-11.813 2.957-.498-2.915-.23-5.447 2.163-7.327 4.497-3.627 11.715-.756 11.715 4.797z" fill="#6D6D6D"/><path d="M43.835 7.79V5.085a3.522 3.522 0 013.523-3.523 3.52 3.52 0 013.523 3.523v2.703" fill="#6D6D6D"/><path d="M59.22 26.953l-1.263-1.582a3.102 3.102 0 00-2.201-.91H38.961c-.797 0-1.594.303-2.201.91l-1.31 1.64c1.83 9.878 3.1 6.395 3.1 22.108h17.614c0-8.16.208-10.91 1.203-14.486.2-.729 2.074-7.414 1.854-7.68z" fill="#B3CEC9"/><path d="M56.993 26.485L55.967 25.2a2.52 2.52 0 00-1.788-.74H40.538a2.52 2.52 0 00-1.788.74l-1.065 1.333c1.21 6.528 2.293 6.104 2.476 13.701a6.959 6.959 0 006.954 6.794c4.756 0 7.348-3.326 7.442-6.83.077-2.979.204-4.866.93-7.475.168-.608 1.685-6.022 1.506-6.238z" fill="#CAE0DD"/><path d="M71.309 59.718L56.164 49.12H38.551c-2.09 12.92-.249 21.374 1.625 35.254l7.182-.028V59.687l12.33 3.524v7.045h8.299c5.684 0 7.9-7.323 3.322-10.538z" fill="#5FC68F"/><path d="M71.309 59.718L56.164 49.12H38.551c-1.758 10.868-.649 15.305 1.176 28.812.421 3.139 4.278 4.433 6.514 2.192a3.827 3.827 0 001.117-2.705v-18.6a1.69 1.69 0 012.154-1.625l10.176 2.908c0 .034-.338-.143 4.375 2.149h-4.375a4.895 4.895 0 004.896 4.896h3.403c2.66 0 4.9-1.79 5.58-4.234a5.79 5.79 0 00-2.258-3.194z" fill="#7ADBAE"/><path d="M47.358 84.346v12.53c0 .863-.7 1.562-1.563 1.562H35.278c-1.201 0-1.973-1.31-1.356-2.338.384-.767 1.463-1.715 2.764-2.04l4.64-1.16c-.279-2.076-.049-.37-1.15-8.526.328 0-.628.003 7.182-.028z" fill="#F9CFAC"/><path d="M47.358 84.346v10.967c0 .863-.7 1.563-1.563 1.563H35.278a1.566 1.566 0 01-1.356-.776c.384-.767 1.463-1.715 2.764-2.04l4.64-1.16-.203-1.51.204-.052-.94-6.964 6.97-.028z" fill="#FFE4CC"/><path d="M59.688 63.211v7.045h-7.045c-.906 3.616-.97 4.887-2.508 6.09a4.507 4.507 0 01-2.777.955V66.336a3.125 3.125 0 013.125-3.125h9.205z" fill="#F9CFAC"/><path d="M59.688 63.211v4.961h-7.045c-.906 3.616-.97 4.887-2.508 6.09a4.506 4.506 0 01-2.777.955v-8.88a3.125 3.125 0 013.125-3.126h9.205z" fill="#FFE4CC"/><path d="M47.358 32.244v9.83c0 .976-.792 1.762-1.762 1.762h-15.46c-2.43 0-4.257-2.2-3.862-4.549.229-1.404-.112-.647 10.486-13.916 1.375-1.375 3.583-1.072 4.531.14a3.113 3.113 0 01-.129 4.265c-4.389 5.591-4.913 6.26-6.89 8.775h7.803l.646-3.703c.98-2.95 3.843-3.262 3.863-3.281a.678.678 0 01.774.677z" fill="#F9CFAC"/><path d="M64.582 43.836H49.12a1.763 1.763 0 01-1.761-1.762v-9.83c0-.414.365-.742.773-.678.02.02 2.885.334 3.863 3.281l.649 3.704h7.802l-6.892-8.776c-1.952-1.951-.567-5.314 2.203-5.314.797 0 1.594.303 2.201.91 1.115 1.396 9.623 12.034 9.682 12.107 2.03 2.538.229 6.358-3.057 6.358z" fill="#F9CFAC"/><path d="M46.576 39.033c0 .976-.791 1.762-1.761 1.762H29.354c-1.276 0-2.416-.626-3.08-1.508.229-1.404-.113-.647 10.486-13.916a3.117 3.117 0 014.402 0c.04.04-.21.793-.78 1.364-4.542 5.785-3.368 4.29-5.556 7.074a3.8 3.8 0 00-.554 3.719h.804l-.804 1.023h7.803l.646-3.703a4.883 4.883 0 013.547-3.219c.416.494.308.168.308 7.404zm21.901.516c-.546.662-1.666 1.246-2.858 1.246H50.156a1.764 1.764 0 01-1.761-1.762c0-7.166-.095-6.875.265-7.351a4.882 4.882 0 013.334 3.166l.649 3.703h7.802l-.804-1.024h1.06c.172-.443.256-.91.256-1.37 0-1.656-.849-2.397-2.552-4.565-4.596-5.851-4.478-5.571-4.655-6.4a3.118 3.118 0 014.207.18c7.416 9.283.96 1.202 9.682 12.106.476.596.766 1.317.838 2.07z" fill="#FFE4CC"/><path d="M52.233 8.629c-2.65 1.064-7.192.975-9.543-.174 2.759-2.225 6.92-2.12 9.543.174z" fill="#797A7A"/><path d="M1.566 99.999H98.44a1.563 1.563 0 000-3.125H48.924V78.659a6.065 6.065 0 004.33-4.398l.612-2.444H67.99c7.182 0 10.074-9.28 4.218-13.379L57.73 48.305c.003-1.077.01-2.04.024-2.908h6.83c4.574 0 7.134-5.325 4.277-8.895-10.446-13.062-9.707-12.147-9.797-12.237-1.648-1.648-3.356-1.368-5.86-1.368.31-.497.335-.596 1.325-2.841a16.914 16.914 0 001.44-6.805c0-2.654-1.38-4.976-3.523-6.432 0-2.05.175-3.663-1.49-5.334-3.201-3.19-8.68-.9-8.68 3.6v1.734c-2.143 1.455-3.523 3.778-3.523 6.432 0 2.34.484 4.63 1.44 6.807.965 2.189 1.001 2.323 1.324 2.84-2.398 0-4.202-.291-5.86 1.367-.111.111-.876 1.087-1.502 1.865-1.29 1.596 1.095 3.648 2.517 1.857 1.233-1.543 1.317-1.811 2.004-1.938.22-.041-.855-.027 17.083-.027.985 0 1.18.618 2.27 1.937.228.296-.935-1.168 8.392 10.494 1.225 1.531.124 3.82-1.836 3.82H49.123c-.288 0-.2.368-.2-8.817.7.373 1.265.987 1.557 1.784l.627 3.579c.13.747.78 1.293 1.54 1.293h7.802c1.299 0 2.035-1.502 1.229-2.528l-4.508-5.738a1.562 1.562 0 10-2.458 1.93l.947 1.205a25.785 25.785 0 00-.443 2.006H53.96l-.422-2.41c-.153-.876-1.025-2.428-2.403-3.417a6.449 6.449 0 00-7.543-.002c-1.326.954-2.244 2.491-2.406 3.42l-.42 2.409h-1.26a26.377 26.377 0 00-.441-2.006l.947-1.205a1.562 1.562 0 10-2.458-1.93l-4.507 5.738c-.802 1.021-.076 2.528 1.229 2.528h7.803c.759 0 1.408-.546 1.539-1.294l.625-3.578a3.31 3.31 0 011.556-1.784v8.617c0 .306.828.2-15.66.2-1.948 0-3.072-2.276-1.835-3.822l.3-.376a1.563 1.563 0 00-2.442-1.95l-.3.376c-2.89 3.613-.258 8.896 4.277 8.896h6.829c.016 1.06.024 2.252.024 3.606-2.138 13.383-.284 21.34 2.603 42.719l-3.285.82a6.064 6.064 0 00-4.397 4.331H1.566a1.563 1.563 0 000 3.126zM45.4 5.084c0-1.748 2.122-2.609 3.346-1.39.607.61.575 1.237.575 1.798a9.325 9.325 0 00-3.92 0v-.408zm-1.97 4.793c.94-.854.968-.46 1.49-.964a6.149 6.149 0 014.88 0c.496.478.58.135 1.492.964 1.818 1.653 1.775 3.753 1.255 6.193-.364 1.715-.838 2.637-1.786 4.786-1.193 2.712-5.608 2.712-6.801-.001-1.12-2.54-2.082-4.407-2.082-7.604 0-1.266.55-2.464 1.551-3.374zm9.215 58.815c-.717 0-1.342.488-1.516 1.184l-.907 3.627a2.945 2.945 0 01-1.3 1.788v-10.52h9.205v3.921h-5.482zM47.36 44.89c1.08.678 1.451.508 7.269.508a247.071 247.071 0 00-.025 3.721c0 .4.159.797.442 1.088.159.163-.832-.548 15.369 10.793 3.375 2.362 1.697 7.693-2.425 7.693h-6.737v-3.92h1.96a1.563 1.563 0 000-3.125H59.91l-12.119-3.463a1.563 1.563 0 00-1.992 1.502v23.097h-4.258c-1.812-13.42-3.29-20.545-1.643-32.102h7.464a1.563 1.563 0 100-3.125h-7.248c-.004-.776-.011-1.492-.02-2.159 5.876 0 6.203.16 7.267-.508zM37.067 95.575l4.642-1.16a1.563 1.563 0 001.17-1.725l-.916-6.782h3.836v10.966h-10.52a2.944 2.944 0 011.788-1.299z" fill="#000"/><path d="M30.256 31.005l-.242.3a1.562 1.562 0 102.434 1.96l.243-.3a1.563 1.563 0 00-2.435-1.96z" fill="#000"/></svg>
